ir/intersect-alt.svg

<svg stroke-width="1.5" viewBox="0 0 24 24" fill="none" xmlns="http://www.w3.org/2000/svg" height="1em" width="1em">
  <path d="M15.0098 3.00001L14.9998 3.01112" stroke="currentColor" stroke-linecap="round" stroke-linejoin="round"/>
  <path d="M11.0098 3.00001L10.9998 3.01112" stroke="currentColor" stroke-linecap="round" stroke-linejoin="round"/>
  <path d="M7.00977 3.00001L6.99977 3.01112" stroke="currentColor" stroke-linecap="round" stroke-linejoin="round"/>
  <path d="M3.00977 3.00001L2.99977 3.01112" stroke="currentColor" stroke-linecap="round" stroke-linejoin="round"/>
  <path d="M3.00977 7.00001L2.99977 7.01112" stroke="currentColor" stroke-linecap="round" stroke-linejoin="round"/>
  <path d="M3.00977 11L2.99977 11.0111" stroke="currentColor" stroke-linecap="round" stroke-linejoin="round"/>
  <path d="M3.00977 15L2.99977 15.0111" stroke="currentColor" stroke-linecap="round" stroke-linejoin="round"/>
  <path d="M9 21.01L9.01 20.9989" stroke="currentColor" stroke-linecap="round" stroke-linejoin="round"/>
  <path d="M13 21.01L13.01 20.9989" stroke="currentColor" stroke-linecap="round" stroke-linejoin="round"/>
  <path d="M17 21.01L17.01 20.9989" stroke="currentColor" stroke-linecap="round" stroke-linejoin="round"/>
  <path d="M21 21.01L21.01 20.9989" stroke="currentColor" stroke-linecap="round" stroke-linejoin="round"/>
  <path d="M21 17.01L21.01 16.9989" stroke="currentColor" stroke-linecap="round" stroke-linejoin="round"/>
  <path d="M21 13.01L21.01 12.9989" stroke="currentColor" stroke-linecap="round" stroke-linejoin="round"/>
  <path d="M21 9.01L21.01 8.99889" stroke="currentColor" stroke-linecap="round" stroke-linejoin="round"/>
  <path d="M9 17L9 10C9 9.44772 9.44772 9 10 9L17 9" stroke="currentColor" stroke-linecap="round" stroke-linejoin="round"/>
  <path d="M15 7L15 14C15 14.5523 14.5523 15 14 15L7 15" stroke="currentColor" stroke-linecap="round" stroke-linejoin="round"/>
</svg>

<svg stroke-width="1.5" viewBox="0 0 24 24" fill="none" xmlns="http://www.w3.org/2000/svg" height="1em" width="1em">
  <path d="m15.01 3-.01.011M11.01 3l-.01.011M7.01 3 7 3.011M3.01 3 3 3.011M3.01 7 3 7.011M3.01 11l-.01.011M3.01 15l-.01.011m6 5.999.01-.011m3.99.011.01-.011m3.99.011.01-.011m3.99.011.01-.011M21 17.01l.01-.011M21 13.01l.01-.011M21 9.01l.01-.011M9 17v-7a1 1 0 0 1 1-1h7" stroke="currentColor" stroke-linecap="round" stroke-linejoin="round"/>
  <path d="M15 7v7a1 1 0 0 1-1 1H7" stroke="currentColor" stroke-linecap="round" stroke-linejoin="round"/>
</svg>
